X: 1
T: Im Bo 'gus Um Bo
M: 3/4
L: 1/8
R: waltz
K: Emin
B|B3cd2|e4e2|e2d2c2|B4B2|
c3dc2|c2B2A2|A2G2B2|d4B2|
e2d2B2|B2A2G2|A2G2E2|E6|
